build/assets/images/svg/icons/menu/favorites.svg

<svg width="24" height="24" viewBox="0 0 24 24" fill="none" xmlns="http://www.w3.org/2000/svg">
<path fill-rule="evenodd" clip-rule="evenodd" d="M10.4582 2.73112C11.0985 3.0554 11.6198 3.43493 12 3.75404C12.3803 3.43494 12.9015 3.0554 13.5417 2.73113C14.9927 1.99628 17.0809 1.54179 19.4293 2.73112C20.9294 3.49084 21.9442 4.6404 22.4968 6.0361C23.0419 7.41303 23.116 8.97187 22.8536 10.5534C22.4065 13.248 20.5648 15.6525 18.6732 17.5051C16.7581 19.3808 14.6582 20.8193 13.4739 21.5694C12.5675 22.1435 11.4326 22.1435 10.5261 21.5694C9.34185 20.8193 7.24191 19.3808 5.32674 17.5051C3.43518 15.6525 1.59341 13.248 1.14632 10.5534C0.883901 8.97187 0.957972 7.41303 1.50313 6.0361C2.05573 4.6404 3.07049 3.49084 4.5706 2.73112C6.919 1.54179 9.00728 1.99628 10.4582 2.73112ZM11.2382 5.78544C11.4281 6.0089 11.7067 6.13773 12.0001 6.13772C12.2929 6.13772 12.571 6.00934 12.7609 5.78659C12.7612 5.78634 12.7614 5.78608 12.7616 5.78582C12.7618 5.78552 12.7621 5.78522 12.7624 5.78492L12.7775 5.76789C12.7931 5.75062 12.8192 5.72217 12.8555 5.68468C12.9281 5.60952 13.0402 5.49901 13.188 5.36976C13.4857 5.10932 13.9154 4.78378 14.4454 4.51535C15.4864 3.98812 16.8869 3.68537 18.5257 4.51535C19.5957 5.05724 20.2669 5.83711 20.6372 6.77234C21.0149 7.72634 21.1006 8.89996 20.8806 10.2261C20.5391 12.2838 19.0718 14.3153 17.2738 16.0762C15.4995 17.8141 13.5295 19.1668 12.4038 19.8798C12.1507 20.0401 11.8493 20.0401 11.5963 19.8798C10.4705 19.1668 8.50054 17.8141 6.72617 16.0762C4.92818 14.3153 3.46078 12.2838 3.11934 10.2261C2.89931 8.89996 2.98498 7.72634 3.36269 6.77234C3.73297 5.83711 4.40422 5.05724 5.47421 4.51535C7.11305 3.68537 8.51359 3.98812 9.55463 4.51535C10.0847 4.78379 10.5144 5.10934 10.8121 5.36978C10.9598 5.49903 11.072 5.60954 11.1446 5.68469C11.1809 5.72219 11.207 5.75063 11.2226 5.7679L11.2382 5.78544Z" fill="white"/>
</svg>

<svg width="24" height="24" fill="none" xmlns="http://www.w3.org/2000/svg"><path fill-rule="evenodd" clip-rule="evenodd" d="M10.458 2.731A8.14 8.14 0 0112 3.754c.38-.32.902-.699 1.542-1.023 1.45-.735 3.539-1.19 5.887 0 1.5.76 2.515 1.91 3.068 3.305.545 1.377.619 2.936.357 4.517-.447 2.695-2.29 5.1-4.18 6.952-1.916 1.876-4.016 3.314-5.2 4.064a2.738 2.738 0 01-2.948 0c-1.184-.75-3.284-2.188-5.2-4.064-1.89-1.852-3.733-4.257-4.18-6.952-.262-1.581-.188-3.14.357-4.517.553-1.396 1.567-2.545 3.068-3.305 2.348-1.19 4.436-.735 5.887 0zm.78 3.054a1 1 0 001.523.002v-.001l.001-.001.015-.017c.016-.017.042-.046.079-.083a6.18 6.18 0 011.59-1.17c1.04-.527 2.44-.83 4.08 0 1.07.542 1.74 1.322 2.111 2.257.378.954.464 2.128.244 3.454-.342 2.058-1.81 4.09-3.607 5.85-1.775 1.738-3.745 3.09-4.87 3.804a.738.738 0 01-.808 0c-1.126-.713-3.095-2.066-4.87-3.804-1.798-1.76-3.265-3.792-3.607-5.85-.22-1.326-.134-2.5.244-3.454.37-.935 1.041-1.715 2.111-2.257 1.64-.83 3.04-.527 4.08 0a6.18 6.18 0 011.669 1.253l.015.017z" fill="#fff"/></svg>
